svgs/regular/suitcase-medical.svg

<svg xmlns="http://www.w3.org/2000/svg" viewBox="0 0 512 512"><!--! Font Awesome Pro 6.6.0 by @fontawesome - https://fontawesome.com License - https://fontawesome.com/license (Commercial License) Copyright 2024 Fonticons, Inc. --><path d="M184 48l144 0c4.4 0 8 3.6 8 8l0 40L176 96l0-40c0-4.4 3.6-8 8-8zm-56 8l0 40L64 96C28.7 96 0 124.7 0 160L0 416c0 35.3 28.7 64 64 64l384 0c35.3 0 64-28.7 64-64l0-256c0-35.3-28.7-64-64-64l-64 0 0-40c0-30.9-25.1-56-56-56L184 0c-30.9 0-56 25.1-56 56zm240 88l0 288-224 0 0-288 8 0 208 0 8 0zM96 144l0 288-32 0c-8.8 0-16-7.2-16-16l0-256c0-8.8 7.2-16 16-16l32 0zM416 432l0-288 32 0c8.8 0 16 7.2 16 16l0 256c0 8.8-7.2 16-16 16l-32 0zM229.3 224l0 37.3-37.3 0c-8.8 0-16 7.2-16 16l0 21.3c0 8.8 7.2 16 16 16l37.3 0 0 37.3c0 8.8 7.2 16 16 16l21.3 0c8.8 0 16-7.2 16-16l0-37.3 37.3 0c8.8 0 16-7.2 16-16l0-21.3c0-8.8-7.2-16-16-16l-37.3 0 0-37.3c0-8.8-7.2-16-16-16l-21.3 0c-8.8 0-16 7.2-16 16z"/></svg>

<svg xmlns="http://www.w3.org/2000/svg" viewBox="0 0 512 512"><!--! Font Awesome Pro 6.4.2 by @fontawesome - https://fontawesome.com License - https://fontawesome.com/license (Commercial License) Copyright 2023 Fonticons, Inc. --><path d="M184 48H328c4.4 0 8 3.6 8 8V96H176V56c0-4.4 3.6-8 8-8zm-56 8V96H64C28.7 96 0 124.7 0 160V416c0 35.3 28.7 64 64 64H448c35.3 0 64-28.7 64-64V160c0-35.3-28.7-64-64-64H384V56c0-30.9-25.1-56-56-56H184c-30.9 0-56 25.1-56 56zm240 88V432H144V144h8H360h8zM96 144V432H64c-8.8 0-16-7.2-16-16V160c0-8.8 7.2-16 16-16H96zM416 432V144h32c8.8 0 16 7.2 16 16V416c0 8.8-7.2 16-16 16H416zM229.3 224v37.3H192c-8.8 0-16 7.2-16 16v21.3c0 8.8 7.2 16 16 16h37.3V352c0 8.8 7.2 16 16 16h21.3c8.8 0 16-7.2 16-16V314.7H320c8.8 0 16-7.2 16-16V277.3c0-8.8-7.2-16-16-16l-37.3 0V224c0-8.8-7.2-16-16-16H245.3c-8.8 0-16 7.2-16 16z"/></svg>
